!!!OTL@@FUR: Se jo ves di marid&acirc;mi
!!!OTL@IT: Se dovessi sposarmi
!!!OTL@EN: If I were to marry
**kern
*clefG2
*k[b-]
*F:
*M3/4
*MM125
*>[A,B,C,B,D]
*>A
4cc
4b-
=1:|!
*>B
2g
4g
=2
4g
4a
4b-
=3
2.a
=4
4a
4cc
4a
=5
2g
4g
=6
4g
4a
4b-
=7
[2.a
=8
4a]
4b-
4cc
=9
2dd
4dd
=
2dd
4dd
=10
2dd
4dd
=11
2dd
4dd
=12
2dd
4dd
=13
2dd
4dd
=14
2.dd
=15
4cc
4r!
12cc
12dd
12ee
=16
8ff
8r
4r
4a
=17
2a
4cc
=18
2.cc
=19
8b-
8r
4cc
4dd
=20
2cc
4dd
=21
2cc
4b-
=22||
*>C
[2.a
=23
8a]
8r
4cc
4a
=24:|!
*>D
[2.a
=25
8a]
8r
4r
4r
==
*-
!!!ARE: Friuli
!!!ENC: Kelly Leistikow
!!!END: 2002/03/07
!!!ref: @{OTL@@FUR}/@{OTL@EN}
